src/assets/icons/jazzy.svg

<svg xmlns="http://www.w3.org/2000/svg" viewBox="0 0 100 100" width="100" height="100" preserveAspectRatio="xMidYMid meet" style="width: 100%; height: 100%; transform: translate3d(0px, 0px, 0px); content-visibility: visible;"><defs><clipPath id="__lottie_element_142"><rect width="100" height="100" x="0" y="0"></rect></clipPath></defs><g clip-path="url(#__lottie_element_142)"><g style="display: none;" transform="matrix(0,0,0,0,70.9209976196289,33.83599853515625)" opacity="1"><g opacity="1" transform="matrix(1.0691699981689453,0,0,1.0691699981689453,-123.89019012451172,5.000091552734375)"><g opacity="1" transform="matrix(1,0,0,1,0,0)"><path fill="rgb(244,176,101)" fill-opacity="1" d=" M42.44900131225586,-40.529998779296875 C37.361000061035156,-42.96699905395508 32.750999450683594,-44.18600082397461 28.617000579833984,-44.18600082397461 C22.099000930786133,-44.18600082397461 16.825000762939453,-42.29100036621094 12.79800033569336,-38.50299835205078 C8.770000457763672,-34.7130012512207 6.756999969482422,-30.035999298095703 6.756999969482422,-24.472000122070312 C6.756999969482422,-19.22599983215332 8.439000129699707,-14.972999572753906 11.805000305175781,-11.71399974822998 C15.170000076293945,-8.454999923706055 19.739999771118164,-6.824999809265137 25.517000198364258,-6.824999809265137 C30.392000198364258,-6.824999809265137 34.89699935913086,-7.886000156402588 39.03099822998047,-10.005000114440918 C43.165000915527344,-12.125 46.077999114990234,-14.972999572753906 47.775001525878906,-18.549999237060547 C49.470001220703125,-22.12700080871582 50.319000244140625,-27.121000289916992 50.319000244140625,-33.534000396728516 C50.319000244140625,-33.534000396728516 50.319000244140625,-99.98999786376953 50.319000244140625,-99.98999786376953 C50.319000244140625,-99.98999786376953 97.34100341796875,-108.69599914550781 97.34100341796875,-108.69599914550781 C97.34100341796875,-108.69599914550781 97.61599731445312,-57.14400100708008 97.61599731445312,-57.14400100708008 C93.95899963378906,-58.68000030517578 91.322998046875,-59.63399887084961 89.70700073242188,-60.005001068115234 C88.08999633789062,-60.375 86.22200012207031,-60.5620002746582 84.10299682617188,-60.5620002746582 C77.63700103759766,-60.5620002746582 72.36399841308594,-58.64099884033203 68.28399658203125,-54.79899978637695 C64.2030029296875,-50.95600128173828 62.16299819946289,-46.3849983215332 62.16299819946289,-41.08599853515625 C62.16299819946289,-35.84000015258789 63.8849983215332,-31.55900001525879 67.33000183105469,-28.24799919128418 C70.77400207519531,-24.934999465942383 75.38500213623047,-23.280000686645508 81.16200256347656,-23.280000686645508 C86.19599914550781,-23.280000686645508 90.71299743652344,-24.364999771118164 94.71499633789062,-26.538999557495117 C98.71600341796875,-28.711000442504883 101.552001953125,-31.466999053955078 103.22100067138672,-34.805999755859375 C104.88999938964844,-38.14500045776367 105.7249984741211,-43.0989990234375 105.7249984741211,-49.67100143432617 C105.7249984741211,-49.67100143432617 105.4489974975586,-131.74899291992188 105.4489974975586,-131.74899291992188 C105.4489974975586,-131.74899291992188 42.44900131225586,-118.03500366210938 42.44900131225586,-118.03500366210938 C42.44900131225586,-118.03500366210938 42.44900131225586,-40.529998779296875 42.44900131225586,-40.529998779296875z"></path></g></g></g><g transform="matrix(0.9999077916145325,-0.013578861951828003,0.013578861951828003,0.9999077916145325,33.105560302734375,43.33749771118164)" opacity="1" style="display: block;"><g opacity="1" transform="matrix(1,0,0,1,12.723999977111816,11.086999893188477)"><path fill="rgb(243,176,100)" fill-opacity="1" d=" M11.82699966430664,-0.45100000500679016 C11.82699966430664,-0.45100000500679016 5.755000114440918,-3.7950000762939453 5.755000114440918,-3.7950000762939453 C5.281000137329102,-4.056000232696533 4.684999942779541,-3.881999969482422 4.423999786376953,-3.4079999923706055 C4.251999855041504,-3.0959999561309814 4.269000053405762,-2.7320001125335693 4.434999942779541,-2.444999933242798 C3.878999948501587,-1.9509999752044678 3.436000108718872,-1.3320000171661377 3.1429998874664307,-0.6240000128746033 C2.950000047683716,-0.1589999943971634 2.8310000896453857,0.3240000009536743 2.7839999198913574,0.8119999766349792 C2.7839999198913574,0.8119999766349792 -4.7729997634887695,-8.454000473022461 -4.7729997634887695,-8.454000473022461 C-5.534999847412109,-10.079999923706055 -7.455999851226807,-10.836999893188477 -9.133000373840332,-10.142999649047852 C-9.968000411987305,-9.79699993133545 -10.619000434875488,-9.145000457763672 -10.96500015258789,-8.309000015258789 C-11.310999870300293,-7.473999977111816 -11.310999870300293,-6.553999900817871 -10.96500015258789,-5.7179999351501465 C-10.819000244140625,-5.366000175476074 -10.819000244140625,-4.979000091552734 -10.96500015258789,-4.626999855041504 C-11.111000061035156,-4.275000095367432 -11.385000228881836,-4.001999855041504 -11.736000061035156,-3.8559999465942383 C-12.236000061035156,-3.6489999294281006 -12.473999977111816,-3.0759999752044678 -12.267000198364258,-2.5759999752044678 C-12.109999656677246,-2.197999954223633 -11.746000289916992,-1.968999981880188 -11.361000061035156,-1.968999981880188 C-11.236000061035156,-1.968999981880188 -11.109000205993652,-1.99399995803833 -10.987000465393066,-2.0450000762939453 C-10.151000022888184,-2.3910000324249268 -9.5,-3.0409998893737793 -9.154000282287598,-3.877000093460083 C-8.807999610900879,-4.711999893188477 -8.807999610900879,-5.631999969482422 -9.154000282287598,-6.4679999351501465 C-9.300000190734863,-6.820000171661377 -9.300000190734863,-7.206999778747559 -9.154000282287598,-7.559000015258789 C-9.008000373840332,-7.910999774932861 -8.734000205993652,-8.1850004196167 -8.383000373840332,-8.331000328063965 C-7.656000137329102,-8.631999969482422 -6.820000171661377,-8.28600025177002 -6.519999980926514,-7.559000015258789 C-6.519999980926514,-7.559000015258789 -0.38199999928474426,7.257999897003174 -0.38199999928474426,7.257999897003174 C-0.3479999899864197,7.3379998207092285 -0.31299999356269836,7.416999816894531 -0.2759999930858612,7.494999885559082 C-0.26499998569488525,7.519999980926514 -0.25200000405311584,7.546000003814697 -0.23999999463558197,7.571000099182129 C-0.2150000035762787,7.624000072479248 -0.18799999356269836,7.677000045776367 -0.1599999964237213,7.730000019073486 C-0.1459999978542328,7.756999969482422 -0.13199999928474426,7.783999919891357 -0.11699999868869781,7.811999797821045 C-0.08699999749660492,7.867000102996826 -0.0560000017285347,7.921999931335449 -0.02500000037252903,7.974999904632568 C-0.008999999612569809,8.003000259399414 0.007000000216066837,8.029999732971191 0.024000000208616257,8.057000160217285 C0.05999999865889549,8.118000030517578 0.09799999743700027,8.175999641418457 0.13699999451637268,8.234999656677246 C0.15800000727176666,8.267999649047852 0.18000000715255737,8.298999786376953 0.20200000703334808,8.331000328063965 C0.22699999809265137,8.368000030517578 0.2529999911785126,8.404999732971191 0.2800000011920929,8.442000389099121 C0.30300000309944153,8.473999977111816 0.3269999921321869,8.508000373840332 0.35199999809265137,8.541000366210938 C0.3799999952316284,8.57800006866455 0.4099999964237213,8.616000175476074 0.4390000104904175,8.652999877929688 C0.46799999475479126,8.689000129699707 0.4959999918937683,8.725000381469727 0.5260000228881836,8.760000228881836 C0.5680000185966492,8.810999870300293 0.6110000014305115,8.861000061035156 0.6549999713897705,8.90999984741211 C0.6779999732971191,8.935999870300293 0.7009999752044678,8.960000038146973 0.7239999771118164,8.984999656677246 C0.7609999775886536,9.02400016784668 0.7979999780654907,9.062999725341797 0.8360000252723694,9.10200023651123 C0.8569999933242798,9.121999740600586 0.8769999742507935,9.142999649047852 0.8970000147819519,9.163000106811523 C0.9589999914169312,9.225000381469727 1.0230000019073486,9.28499984741211 1.0870000123977661,9.343000411987305 C1.0980000495910645,9.35200023651123 1.1080000400543213,9.359999656677246 1.1180000305175781,9.369000434875488 C1.1799999475479126,9.423999786376953 1.2419999837875366,9.479000091552734 1.305999994277954,9.531000137329102 C1.3079999685287476,9.532999992370605 1.309999942779541,9.534000396728516 1.312999963760376,9.53600025177002 C2.0369999408721924,10.12600040435791 2.8989999294281006,10.53600025177002 3.8329999446868896,10.722000122070312 C3.8399999141693115,10.722999572753906 3.8480000495910645,10.725000381469727 3.8550000190734863,10.72599983215332 C3.937999963760376,10.743000030517578 4.020999908447266,10.756999969482422 4.105000019073486,10.770000457763672 C4.1539998054504395,10.777000427246094 4.203999996185303,10.784000396728516 4.254000186920166,10.789999961853027 C4.28000020980835,10.793999671936035 4.306000232696533,10.795999526977539 4.331999778747559,10.798999786376953 C4.395999908447266,10.805999755859375 4.459000110626221,10.812000274658203 4.52400016784668,10.817000389099121 C4.53000020980835,10.817000389099121 4.5370001792907715,10.817999839782715 4.544000148773193,10.817999839782715 C4.684999942779541,10.829000473022461 4.827000141143799,10.836999893188477 4.968999862670898,10.836999893188477 C5.5329999923706055,10.836999893188477 6.0980000495910645,10.751999855041504 6.646999835968018,10.585000038146973 C6.692999839782715,10.571000099182129 6.738999843597412,10.555999755859375 6.784999847412109,10.539999961853027 C6.828999996185303,10.526000022888184 6.873000144958496,10.51200008392334 6.916999816894531,10.496999740600586 C7.006999969482422,10.46399974822998 7.0970001220703125,10.430000305175781 7.184999942779541,10.392999649047852 C8.107000350952148,10.01099967956543 8.878999710083008,9.416000366210938 9.465999603271484,8.689000129699707 C9.524999618530273,8.616999626159668 9.581999778747559,8.543000221252441 9.63700008392334,8.468000411987305 C9.663999557495117,8.430000305175781 9.690999984741211,8.392999649047852 9.718000411987305,8.354999542236328 C9.824000358581543,8.20199966430664 9.92300033569336,8.043000221252441 10.012999534606934,7.881999969482422 C10.491000175476074,7.0320000648498535 10.753000259399414,6.066999912261963 10.76099967956543,5.079999923706055 C10.76099967956543,5.0329999923706055 10.76099967956543,4.986000061035156 10.760000228881836,4.939000129699707 C10.748000144958496,4.23199987411499 10.605999946594238,3.5160000324249268 10.319999694824219,2.825000047683716 C10.173999786376953,2.4730000495910645 10.173999786376953,2.0859999656677246 10.319999694824219,1.7339999675750732 C10.40999984741211,1.5160000324249268 10.550000190734863,1.3279999494552612 10.72700023651123,1.1820000410079956 C10.72700023651123,1.1820000410079956 10.881999969482422,1.2660000324249268 10.881999969482422,1.2660000324249268 C11.031000137329102,1.3480000495910645 11.194000244140625,1.3869999647140503 11.352999687194824,1.3869999647140503 C11.699000358581543,1.3869999647140503 12.034000396728516,1.2050000429153442 12.213000297546387,0.8809999823570251 C12.473999977111816,0.40700000524520874 12.300999641418457,-0.1899999976158142 11.82699966430664,-0.45100000500679016z"></path></g></g></g></svg>

<svg xmlns="http://www.w3.org/2000/svg" width="100" height="100" style="width:100%;height:100%;transform:translate3d(0,0,0);content-visibility:visible"><defs><clipPath id="a"><path d="M0 0h100v100H0z"/></clipPath></defs><g clip-path="url(#a)"><path fill="#F3B064" d="M11.827-.451 5.755-3.795a.98.98 0 0 0-1.32 1.35A4.975 4.975 0 0 0 3.143-.624 4.988 4.988 0 0 0 2.784.812l-7.557-9.266a3.39 3.39 0 0 0-4.36-1.689 3.365 3.365 0 0 0-1.832 1.834 3.364 3.364 0 0 0 0 2.591c.146.352.146.739 0 1.091s-.42.625-.771.771a.98.98 0 0 0 .749 1.811 3.36 3.36 0 0 0 1.833-1.832 3.364 3.364 0 0 0 0-2.591 1.414 1.414 0 0 1 0-1.091 1.427 1.427 0 0 1 2.634 0L-.382 7.258c.034.08.069.159.106.237l.036.076a3.94 3.94 0 0 0 .123.241 6.299 6.299 0 0 0 .254.423c.021.033.043.064.065.096l.078.111.072.099.087.112c.029.036.057.072.087.107.042.051.085.101.129.15l.069.075.112.117.061.061c.062.062.126.122.19.18l.031.026c.062.055.124.11.188.162l.007.005c.724.59 1.586 1 2.52 1.186l.022.004a5.224 5.224 0 0 0 .399.064l.078.009c.064.007.127.013.192.018l.02.001c.141.011.283.019.425.019a5.765 5.765 0 0 0 1.816-.297l.132-.043a5.754 5.754 0 0 0 2.72-2.029l.081-.113a5.82 5.82 0 0 0 1.043-3.275l-.001-.141a5.774 5.774 0 0 0-.44-2.114 1.414 1.414 0 0 1 0-1.091c.09-.218.23-.406.407-.552l.155.084a.98.98 0 1 0 .945-1.717z" transform="translate(45.854 54.35)" style="display:block"/></g></svg>
